src/components/00-materials/images-raw/Architect.svg

<svg width="96" height="96" viewBox="0 0 96 96" fill="none" xmlns="http://www.w3.org/2000/svg">
<path d="M47.63 5.00015V11.7601M43.61 16.6801H51.61L52.86 5.77015C51.1652 5.25253 49.4021 4.99295 47.63 5.00015C45.8573 5.0045 44.0949 5.27071 42.4 5.79015L43.61 16.6801Z" stroke="#00008F" stroke-width="2" stroke-linecap="round" stroke-linejoin="round"/>
<path d="M28.86 26.9401V28.7601C28.86 33.3001 31.2 38.4801 34.72 40.8301M68.72 22.1101H66.3C65.8341 17.4482 63.6622 13.1228 60.2014 9.96469C56.7406 6.80661 52.235 5.03855 47.55 5.00012C42.8934 5.04259 38.4198 6.81915 35.0027 9.98293C31.5856 13.1467 29.4703 17.4705 29.07 22.1101H26.65V26.7301H68.72V22.1101ZM34.72 26.8901V39.6601C34.72 47.4501 39.41 53.7601 47.61 53.7601C55.81 53.7601 60.51 47.4501 60.51 39.6601V27.0001L34.72 26.8901Z" stroke="#00008F" stroke-width="2" stroke-linecap="round" stroke-linejoin="round"/>
<path d="M60.51 40.8302C62.3832 39.5099 63.8993 37.7452 64.9221 35.6943C65.9449 33.6435 66.4424 31.3708 66.37 29.0802V26.7302M39.41 50.9402V57.1702M55.82 50.9402V57.1702" stroke="#00008F" stroke-width="2" stroke-linecap="round" stroke-linejoin="round"/>
<path d="M68.44 86.5502L62.5 85.5702M62 89.5302L65.57 67.9402C65.5966 67.7939 65.6704 67.6605 65.78 67.5602L68.65 63.3102C68.7261 63.2488 68.815 63.2051 68.91 63.1823C69.0051 63.1595 69.1041 63.1581 69.1998 63.1782C69.2955 63.1982 69.3855 63.2394 69.4634 63.2985C69.5412 63.3577 69.605 63.4334 69.65 63.5202L71.03 68.4502C71.0916 68.5704 71.1092 68.7083 71.08 68.8402L67.56 90.4502C67.5306 90.6225 67.4341 90.7761 67.2917 90.8773C67.1492 90.9785 66.9724 91.0191 66.8 90.9902L62.56 90.2902C62.3853 90.263 62.2283 90.1679 62.1234 90.0255C62.0185 89.8832 61.9741 89.7051 62 89.5302V89.5302ZM71 69.4302L65.03 68.4502L71 69.4302Z" stroke="#00008F" stroke-width="2" stroke-miterlimit="10"/>
<path d="M68.88 84.8401L75.21 83.8401C76.3011 83.6514 77.292 83.0874 78.0114 82.2457C78.7308 81.4039 79.1336 80.3373 79.15 79.2301V73.7801C79.0979 70.1238 77.7329 66.6082 75.3042 63.8746C72.8754 61.1411 69.5447 59.372 65.92 58.8901L55.76 57.2201M39.39 57.2201L29.23 58.8901C25.6052 59.372 22.2746 61.1411 19.8458 63.8746C17.4171 66.6082 16.0521 70.1238 16 73.7801V79.2601C16.0145 80.3678 16.4166 81.4355 17.1363 82.2776C17.8561 83.1198 18.8481 83.6832 19.94 83.8701" stroke="#00008F" stroke-width="2" stroke-linecap="round" stroke-linejoin="round"/>
<path d="M36.22 57.7302L45.78 69.1202C46.0006 69.3812 46.2755 69.591 46.5855 69.735C46.8955 69.8789 47.2332 69.9534 47.575 69.9534C47.9168 69.9534 48.2545 69.8789 48.5645 69.735C48.8745 69.591 49.1494 69.3812 49.37 69.1202L58.92 57.7402M26.87 89.5502L26.24 86.5202M32.07 88.4802L31.24 84.4402M37.27 87.4102L36.65 84.3802M42.47 86.3402L41.64 82.3002M47.67 85.2702L47.05 82.2402M52.88 84.2002L52.04 80.1602M58.08 83.1302L57.45 80.1002M26.65 22.1102H68.72M64.82 71.1302L20.89 80.4602C20.4899 80.5467 20.1398 80.7871 19.9153 81.1295C19.6908 81.4718 19.6099 81.8887 19.69 82.2902L21.24 89.8102C21.2805 90.0083 21.3598 90.1964 21.4734 90.3637C21.587 90.531 21.7326 90.6741 21.9018 90.7848C22.0711 90.8954 22.2606 90.9714 22.4594 91.0084C22.6582 91.0454 22.8623 91.0426 23.06 91.0002L63.12 82.8402L64.82 71.1302Z" stroke="#00008F" stroke-width="2" stroke-linecap="round" stroke-linejoin="round"/>
</svg>

<svg width="96" height="96" viewBox="0 0 96 96" fill="none" xmlns="http://www.w3.org/2000/svg"><path d="M47.63 5v6.76m-4.02 4.92h8l1.25-10.91A17.66 17.66 0 0047.63 5a18 18 0 00-5.23.79l1.21 10.89z" stroke="#00008F" stroke-width="2" stroke-linecap="round" stroke-linejoin="round"/><path d="M28.86 26.94v1.82c0 4.54 2.34 9.72 5.86 12.07m34-18.72H66.3A19 19 0 0047.55 5a18.72 18.72 0 00-18.48 17.11h-2.42v4.62h42.07v-4.62zm-34 4.78v12.77c0 7.79 4.69 14.1 12.89 14.1s12.9-6.31 12.9-14.1V27l-25.79-.11z" stroke="#00008F" stroke-width="2" stroke-linecap="round" stroke-linejoin="round"/><path d="M60.51 40.83a13.84 13.84 0 005.86-11.75v-2.35M39.41 50.94v6.23m16.41-6.23v6.23" stroke="#00008F" stroke-width="2" stroke-linecap="round" stroke-linejoin="round"/><path d="M68.44 86.55l-5.94-.98m-.5 3.96l3.57-21.59a.68.68 0 01.21-.38l2.87-4.25a.66.66 0 011 .21l1.38 4.93a.58.58 0 01.05.39l-3.52 21.61a.66.66 0 01-.76.54l-4.24-.7a.67.67 0 01-.56-.76v0zm9-20.1l-5.97-.98 5.97.98z" stroke="#00008F" stroke-width="2" stroke-miterlimit="10"/><path d="M68.88 84.84l6.33-1a4.75 4.75 0 003.94-4.61v-5.45a15.24 15.24 0 00-13.23-14.89l-10.16-1.67m-16.37 0l-10.16 1.67A15.24 15.24 0 0016 73.78v5.48a4.74 4.74 0 003.94 4.61" stroke="#00008F" stroke-width="2" stroke-linecap="round" stroke-linejoin="round"/><path d="M36.22 57.73l9.56 11.39a2.352 2.352 0 003.59 0l9.55-11.38M26.87 89.55l-.63-3.03m5.83 1.96l-.83-4.04m6.03 2.97l-.62-3.03m5.82 1.96l-.83-4.04m6.03 2.97l-.62-3.03m5.83 1.96l-.84-4.04m6.04 2.97l-.63-3.03m-30.8-57.99h42.07m-3.9 49.02l-43.93 9.33a1.56 1.56 0 00-1.2 1.83l1.55 7.52A1.531 1.531 0 0023.06 91l40.06-8.16 1.7-11.71z" stroke="#00008F" stroke-width="2" stroke-linecap="round" stroke-linejoin="round"/></svg>
